build/svg/cmd/ca/sc_underline.svg

<?xml version="1.0" encoding="UTF-8" standalone="no"?>
<svg
   xmlns:dc="http://purl.org/dc/elements/1.1/"
   xmlns:cc="http://creativecommons.org/ns#"
   xmlns:rdf="http://www.w3.org/1999/02/22-rdf-syntax-ns#"
   xmlns:svg="http://www.w3.org/2000/svg"
   xmlns="http://www.w3.org/2000/svg"
   xmlns:sodipodi="http://sodipodi.sourceforge.net/DTD/sodipodi-0.dtd"
   xmlns:inkscape="http://www.inkscape.org/namespaces/inkscape"
   viewBox="0 0 16 16"
   version="1.1"
   id="svg4"
   sodipodi:docname="sc_underline.svg"
   inkscape:export-filename="/home/jupiter007/Libreoffice yaru theme fullcolor/build/cmd/ca/sc_underline.png"
   inkscape:export-xdpi="95"
   inkscape:export-ydpi="95"
   inkscape:version="0.92.5 (2060ec1f9f, 2020-04-08)">
  <metadata
     id="metadata10">
    <rdf:RDF>
      <cc:Work
         rdf:about="">
        <dc:format>image/svg+xml</dc:format>
        <dc:type
           rdf:resource="http://purl.org/dc/dcmitype/StillImage" />
      </cc:Work>
    </rdf:RDF>
  </metadata>
  <defs
     id="defs8">
    <radialGradient
       id="a"
       cx="7.0107198"
       cy="4.5281138"
       gradientTransform="matrix(-1.8940078,3.7390502e-8,-6.4187424e-8,-3.6423225,20.778358,17.055019)"
       gradientUnits="userSpaceOnUse"
       r="3.4318759">
      <stop
         offset="0"
         stop-color="#737373"
         id="stop2" />
      <stop
         offset=".262"
         stop-color="#636363"
         id="stop4" />
      <stop
         offset=".705"
         stop-color="#4b4b4b"
         id="stop6" />
      <stop
         offset="1"
         stop-color="#3f3f3f"
         id="stop8" />
    </radialGradient>
  </defs>
  <sodipodi:namedview
     pagecolor="#ffffff"
     bordercolor="#666666"
     borderopacity="1"
     objecttolerance="10"
     gridtolerance="10"
     guidetolerance="10"
     inkscape:pageopacity="0"
     inkscape:pageshadow="2"
     inkscape:window-width="1920"
     inkscape:window-height="1011"
     id="namedview6"
     showgrid="true"
     inkscape:zoom="29.5"
     inkscape:cx="-2.8994033"
     inkscape:cy="7.3885758"
     inkscape:window-x="0"
     inkscape:window-y="32"
     inkscape:window-maximized="1"
     inkscape:current-layer="svg4">
    <inkscape:grid
       type="xygrid"
       id="grid817" />
  </sodipodi:namedview>
  <path
     d="m 11.671388,9.525483 q 0,0.719479 -0.297107,1.290613 -0.288618,0.563716 -0.831898,0.956835 Q 9.9991027,12.166048 9.2181369,12.373733 8.4371711,12.574 7.4609639,12.574 6.5187116,12.574 5.6953021,12.440489 4.8803812,12.314395 4.3286119,12.062204 v -1.320282 q 0.2886178,0.118678 0.6536345,0.237354 0.3735053,0.11126 0.7809658,0.200268 0.4074604,0.08901 0.8403871,0.148346 0.4329266,0.05193 0.8573646,0.05193 1.3582014,0 2.003347,-0.445039 0.6536341,-0.445039 0.6536341,-1.275778 0,-0.400536 -0.127331,-0.6972272 Q 9.8717714,8.6650744 9.5576873,8.4203022 9.252092,8.1681138 8.7342776,7.9381771 8.2164634,7.7008229 7.4270088,7.4263822 6.6715093,7.1667761 6.1112513,6.8626662 5.5594819,6.5511389 5.1944653,6.1654385 4.8379374,5.7797381 4.6596735,5.2901952 4.4898983,4.8006523 4.4898983,4.1775978 q 0,-0.6527238 0.2716404,-1.1645187 Q 5.0331789,2.5012843 5.5255269,2.1526705 6.0178749,1.7966392 6.6969756,1.6112064 7.384565,1.4257735 8.2079748,1.4257735 q 1.0101622,0 1.8165942,0.1705983 0.806432,0.1631809 1.4346,0.422787 L 10.890422,3.1762601 Q 10.338653,2.9611579 9.6340861,2.8053943 8.9380079,2.6422133 8.1909971,2.6422133 q -1.0356286,0 -1.6043754,0.422787 Q 6.017875,3.48037 6.017875,4.1924324 q 0,0.422787 0.1273314,0.7343143 0.1273314,0.3041099 0.424438,0.5562987 0.2971063,0.2447714 0.7809656,0.4672909 0.492348,0.2151022 1.2054038,0.4598736 0.7724771,0.2670234 1.3497125,0.5488815 0.5857247,0.281858 0.9762077,0.6378891 0.390483,0.3560312 0.585724,0.8233217 0.20373,0.4672915 0.20373,1.1051808 z"
     id="path834"
     style="fill:#000000;stroke:#000000;stroke-width:3;stroke-linejoin:round;stroke-miterlimit:4;stroke-dasharray:none;stroke-opacity:1;fill-opacity:1;opacity:0.6"
     inkscape:connector-curvature="0" />
  <rect
     y="14"
     x="2"
     height="1"
     width="12"
     id="rect832"
     style="opacity:0.6;fill:#000000;fill-opacity:1;stroke:#000000;stroke-width:2;stroke-linejoin:round;stroke-miterlimit:4;stroke-dasharray:none;stroke-opacity:1" />
  <path
     inkscape:connector-curvature="0"
     style="fill:#ffffff;stroke:#ffffff;stroke-width:1;stroke-linejoin:round;stroke-miterlimit:4;stroke-dasharray:none;stroke-opacity:1;fill-opacity:1"
     id="path13"
     d="m 11.671388,9.525483 q 0,0.719479 -0.297107,1.290613 -0.288618,0.563716 -0.831898,0.956835 Q 9.9991027,12.166048 9.2181369,12.373733 8.4371711,12.574 7.4609639,12.574 6.5187116,12.574 5.6953021,12.440489 4.8803812,12.314395 4.3286119,12.062204 v -1.320282 q 0.2886178,0.118678 0.6536345,0.237354 0.3735053,0.11126 0.7809658,0.200268 0.4074604,0.08901 0.8403871,0.148346 0.4329266,0.05193 0.8573646,0.05193 1.3582014,0 2.003347,-0.445039 0.6536341,-0.445039 0.6536341,-1.275778 0,-0.400536 -0.127331,-0.6972272 Q 9.8717714,8.6650744 9.5576873,8.4203022 9.252092,8.1681138 8.7342776,7.9381771 8.2164634,7.7008229 7.4270088,7.4263822 6.6715093,7.1667761 6.1112513,6.8626662 5.5594819,6.5511389 5.1944653,6.1654385 4.8379374,5.7797381 4.6596735,5.2901952 4.4898983,4.8006523 4.4898983,4.1775978 q 0,-0.6527238 0.2716404,-1.1645187 Q 5.0331789,2.5012843 5.5255269,2.1526705 6.0178749,1.7966392 6.6969756,1.6112064 7.384565,1.4257735 8.2079748,1.4257735 q 1.0101622,0 1.8165942,0.1705983 0.806432,0.1631809 1.4346,0.422787 L 10.890422,3.1762601 Q 10.338653,2.9611579 9.6340861,2.8053943 8.9380079,2.6422133 8.1909971,2.6422133 q -1.0356286,0 -1.6043754,0.422787 Q 6.017875,3.48037 6.017875,4.1924324 q 0,0.422787 0.1273314,0.7343143 0.1273314,0.3041099 0.424438,0.5562987 0.2971063,0.2447714 0.7809656,0.4672909 0.492348,0.2151022 1.2054038,0.4598736 0.7724771,0.2670234 1.3497125,0.5488815 0.5857247,0.281858 0.9762077,0.6378891 0.390483,0.3560312 0.585724,0.8233217 0.20373,0.4672915 0.20373,1.1051808 z" />
  <rect
     style="opacity:1;fill:#ffffff;fill-opacity:1;stroke:none;stroke-width:1;stroke-linejoin:round;stroke-miterlimit:4;stroke-dasharray:none;stroke-opacity:1"
     id="rect830"
     width="12"
     height="1"
     x="2"
     y="14" />
</svg>

<svg xmlns="http://www.w3.org/2000/svg" viewBox="0 0 16 16"><path d="M11.671 9.525q0 .72-.297 1.291-.288.564-.832.957-.543.393-1.324.6-.78.201-1.757.201-.942 0-1.766-.134-.815-.126-1.366-.378v-1.32q.288.119.653.237.374.112.781.2.408.09.84.149.434.052.858.052 1.358 0 2.003-.445.654-.445.654-1.276 0-.4-.127-.697-.12-.297-.433-.542-.306-.252-.824-.482-.518-.237-1.307-.512-.755-.26-1.316-.563-.552-.312-.917-.698-.356-.385-.534-.875-.17-.49-.17-1.112 0-.653.272-1.165.271-.512.764-.86.492-.356 1.171-.542.688-.185 1.511-.185 1.01 0 1.817.17.806.164 1.434.423l-.569 1.157q-.551-.215-1.256-.37-.696-.164-1.443-.164-1.036 0-1.604.423-.57.415-.57 1.127 0 .423.128.735.128.304.425.556.297.245.78.467.493.215 1.206.46.772.267 1.35.55.585.28.976.637.39.356.586.823.203.468.203 1.105z" stroke="#000" stroke-width="3" stroke-linejoin="round" opacity=".6"/><path opacity=".6" stroke="#000" stroke-width="2" stroke-linejoin="round" d="M2 14h12v1H2z"/><path d="M11.671 9.525q0 .72-.297 1.291-.288.564-.832.957-.543.393-1.324.6-.78.201-1.757.201-.942 0-1.766-.134-.815-.126-1.366-.378v-1.32q.288.119.653.237.374.112.781.2.408.09.84.149.434.052.858.052 1.358 0 2.003-.445.654-.445.654-1.276 0-.4-.127-.697-.12-.297-.433-.542-.306-.252-.824-.482-.518-.237-1.307-.512-.755-.26-1.316-.563-.552-.312-.917-.698-.356-.385-.534-.875-.17-.49-.17-1.112 0-.653.272-1.165.271-.512.764-.86.492-.356 1.171-.542.688-.185 1.511-.185 1.01 0 1.817.17.806.164 1.434.423l-.569 1.157q-.551-.215-1.256-.37-.696-.164-1.443-.164-1.036 0-1.604.423-.57.415-.57 1.127 0 .423.128.735.128.304.425.556.297.245.78.467.493.215 1.206.46.772.267 1.35.55.585.28.976.637.39.356.586.823.203.468.203 1.105z" fill="#fff" stroke="#fff" stroke-linejoin="round"/><path fill="#fff" d="M2 14h12v1H2z"/></svg>
